X: 1
T: Hedigan's Fancy
M: 9/8
L: 1/8
R: slip jig
K: D
d2A BGE AFD|fed AFD G2E|d2A BGE AFD|BAB E2F GFE:|
|:DdA FDF GFE|DdA FDF G2E|DdA FDF GFE|BAB E2F GFE:|
|:dcd fed ecA|def a2f gfe|dcd fed ecA|dAG FED G2E:|
|:def a2f agf|def agf gfe|def agf agf|bgf e2f gfe:|
|:dfe dAF GFE|dfe dAF BGE|dfe dAF GFE|BAB E2F GFE:|
|:DFA fed FGE|DFA dAF E2A|DFA fed FED|BAB E2F GFE:|
